svg/fluentui-system-icons/ic_fluent_bluetooth_20_filled.svg

<svg width="20" height="20" viewBox="0 0 20 20" fill="none" xmlns="http://www.w3.org/2000/svg">
<path d="M9.46301 2.0571C9.74327 1.94101 10.0659 2.00518 10.2804 2.21968L14.2804 6.21968C14.4305 6.36983 14.51 6.57658 14.499 6.78865C14.4881 7.00071 14.3878 7.19819 14.223 7.33209L10.9394 10L14.223 12.6679C14.3878 12.8018 14.4881 12.9993 14.499 13.2114C14.51 13.4234 14.4305 13.6302 14.2804 13.7803L10.2804 17.7803C10.0659 17.9948 9.74327 18.059 9.46301 17.9429C9.18276 17.8268 9.00002 17.5534 9.00002 17.25V11.5757L6.22297 13.8321C5.90149 14.0933 5.42914 14.0444 5.16794 13.723C4.90674 13.4015 4.9556 12.9291 5.27708 12.6679L8.56067 10L5.27708 7.33209C4.9556 7.07089 4.90674 6.59854 5.16794 6.27706C5.42914 5.95559 5.90149 5.90672 6.22297 6.16792L9.00002 8.42428V2.75001C9.00002 2.44666 9.18276 2.17318 9.46301 2.0571ZM10.5 11.5757V15.4393L12.6317 13.3077L10.5 11.5757ZM10.5 8.42428L12.6317 6.69232L10.5 4.56067V8.42428Z" fill="#212121"/>
</svg>

<svg xmlns="http://www.w3.org/2000/svg" width="20" height="20"><path d="M9.463 2.057a.75.75 0 0 1 .817.163l4 4a.75.75 0 0 1-.057 1.112L10.939 10l3.284 2.668a.75.75 0 0 1 .057 1.112l-4 4A.75.75 0 0 1 9 17.25v-5.674l-2.777 2.256a.75.75 0 0 1-.946-1.164L8.561 10 5.277 7.332a.75.75 0 1 1 .946-1.164L9 8.424V2.75a.75.75 0 0 1 .463-.693Zm1.037 9.519v3.863l2.132-2.131-2.132-1.732Zm0-3.152 2.132-1.732L10.5 4.561v3.863Z"/></svg>
